X: 9
T: The Lilting Fisherman
R: reel
M: 4/4
L: 1/8
K: Cmaj
|G~E3 GAcd|egdB cAAc|G~E3 GAcd|egdB c2 Ac|
|G~E3 GAcd|e2dB cAAc|G~E3 GAcd|egdB c3d|
|e~g3 eaae|gedB cAAc|e~g3 e~a3|bagb a3g|
|egge agea|gedB cAAc|G~E3 GAcd|e2dB cAAc|


Tune 345	Setting 13147

